;FLAVOR:Marlin
;TIME:6666
;Filament used: 0m
;Layer height: 0.1
;MINX:2.14748e+06
;MINY:2.14748e+06
;MINZ:2.14748e+06
;MAXX:-2.14748e+06
;MAXY:-2.14748e+06
;MAXZ:-2.14748e+06

;Generated with Cura_SteamEngine 4.6.2
M104 S215
M105
M109 S215
M82 ;absolute extrusion mode
G28 ;Home
G1 Z15.0 F6000 ;Move the platform down 15mm
;Prime the extruder
G92 E0
G1 F200 E3
G92 E0
G92 E0
G92 E0
G1 F1500 E-6.5
;LAYER_COUNT:88
;LAYER:0
M107
G0 F3600 X37.123 Y41.349 Z0.3
;TYPE:SKIRT
G1 F1500 E0
G1 F1800 X37.722 Y40.834 E0.01486
G1 X38.37 Y40.383 E0.02971
G1 X39.061 Y39.999 E0.04458
G1 X39.786 Y39.687 E0.05943
G1 X40.539 Y39.45 E0.07428
G1 X41.313 Y39.291 E0.08914
G1 X42.098 Y39.21 E0.10398
G1 X57.5 Y39.2 E0.39371
G1 X58.289 Y39.24 E0.40857
G1 X59.069 Y39.359 E0.42341
G1 X59.834 Y39.557 E0.43827
G1 X60.574 Y39.831 E0.45312
G1 X61.283 Y40.179 E0.46797
G1 X61.954 Y40.597 E0.48284
G1 X62.578 Y41.08 E0.49769
G1 X63.151 Y41.623 E0.51254
G1 X63.666 Y42.222 E0.52739
G1 X64.117 Y42.87 E0.54225
G1 X64.501 Y43.561 E0.55712
G1 X64.813 Y44.286 E0.57196
G1 X65.05 Y45.039 E0.58681
G1 X65.209 Y45.813 E0.60168
G1 X65.29 Y46.598 E0.61652
G1 X65.3 Y53 E0.73695
G1 X65.26 Y53.789 E0.75181
G1 X65.141 Y54.569 E0.76665
G1 X64.943 Y55.334 E0.78151
G1 X64.669 Y56.074 E0.79636
G1 X64.321 Y56.783 E0.81121
G1 X63.903 Y57.454 E0.82608
G1 X63.42 Y58.078 E0.84093
G1 X62.877 Y58.651 E0.85578
G1 X62.278 Y59.166 E0.87064
G1 X61.63 Y59.617 E0.88549
G1 X60.939 Y60.001 E0.90036
G1 X60.214 Y60.313 E0.9152
G1 X59.461 Y60.55 E0.93005
G1 X58.687 Y60.709 E0.94492
G1 X57.902 Y60.79 E0.95976
G1 X42.5 Y60.8 E1.24948
G1 X41.711 Y60.76 E1.26434
G1 X40.931 Y60.641 E1.27918
G1 X40.166 Y60.443 E1.29405
G1 X39.426 Y60.169 E1.30889
G1 X38.717 Y59.821 E1.32375
G1 X38.046 Y59.403 E1.33862
G1 X37.422 Y58.92 E1.35346
G1 X36.849 Y58.377 E1.36831
G1 X36.334 Y57.778 E1.38317
G1 X35.883 Y57.13 E1.39802
G1 X35.499 Y56.439 E1.41289
G1 X35.187 Y55.714 E1.42774
G1 X34.95 Y54.961 E1.44259
G1 X34.791 Y54.187 E1.45745
G1 X34.71 Y53.402 E1.4723
G1 X34.7 Y47 E1.59272
G1 X34.74 Y46.211 E1.60758
G1 X34.859 Y45.431 E1.62242
G1 X35.057 Y44.666 E1.63729
G1 X35.331 Y43.926 E1.65213
G1 X35.679 Y43.217 E1.66699
G1 X36.097 Y42.546 E1.68186
G1 X36.58 Y41.922 E1.6967
G1 X37.123 Y41.349 E1.71155
G0 F3600 X37.516 Y41.53
G1 F1800 X38.111 Y41.042 E1.72603
G1 X38.753 Y40.619 E1.74049
G1 X39.436 Y40.264 E1.75497
G1 X40.151 Y39.983 E1.76942
G1 X40.893 Y39.777 E1.7839
G1 X41.651 Y39.649 E1.79836
G1 X42.5 Y39.6 E1.81436
G1 X57.5 Y39.6 E2.09652
G1 X58.268 Y39.64 E2.11099
G1 X59.028 Y39.759 E2.12546
G1 X59.771 Y39.957 E2.13992
G1 X60.49 Y40.231 E2.15439
G1 X61.176 Y40.578 E2.16885
G1 X61.823 Y40.994 E2.18332
G1 X62.423 Y41.475 E2.19779
G1 X62.97 Y42.016 E2.21226
G1 X63.458 Y42.611 E2.22674
G1 X63.881 Y43.253 E2.2412
G1 X64.236 Y43.936 E2.25568
G1 X64.517 Y44.651 E2.27013
G1 X64.723 Y45.393 E2.28461
G1 X64.851 Y46.151 E2.29907
G1 X64.9 Y47 E2.31507
G1 X64.9 Y53 E2.42793
G1 X64.86 Y53.768 E2.4424
G1 X64.741 Y54.528 E2.45687
G1 X64.543 Y55.271 E2.47133
G1 X64.269 Y55.99 E2.48581
G1 X63.922 Y56.676 E2.50027
G1 X63.506 Y57.323 E2.51474
G1 X63.025 Y57.923 E2.5292
G1 X62.484 Y58.47 E2.54367
G1 X61.889 Y58.958 E2.55815
G1 X61.247 Y59.381 E2.57261
G1 X60.564 Y59.736 E2.58709
G1 X59.849 Y60.017 E2.60154
G1 X59.107 Y60.223 E2.61603
G1 X58.349 Y60.351 E2.63049
G1 X57.5 Y60.4 E2.64648
G1 X42.5 Y60.4 E2.92864
G1 X41.732 Y60.36 E2.94311
G1 X40.972 Y60.241 E2.95758
G1 X40.229 Y60.043 E2.97204
G1 X39.51 Y59.769 E2.98652
G1 X38.824 Y59.422 E3.00098
G1 X38.177 Y59.006 E3.01545
G1 X37.577 Y58.525 E3.02991
G1 X37.03 Y57.984 E3.04438
G1 X36.542 Y57.389 E3.05886
G1 X36.119 Y56.747 E3.07332
G1 X35.764 Y56.064 E3.0878
G1 X35.483 Y55.349 E3.10225
G1 X35.277 Y54.607 E3.11674
G1 X35.149 Y53.849 E3.1312
G1 X35.1 Y53 E3.14719
G1 X35.1 Y47 E3.26006
G1 X35.14 Y46.232 E3.27452
G1 X35.259 Y45.472 E3.28899
G1 X35.457 Y44.729 E3.30346
G1 X35.731 Y44.01 E3.31793
G1 X36.078 Y43.324 E3.33239
G1 X36.494 Y42.677 E3.34686
G1 X36.975 Y42.077 E3.36133
G1 X37.516 Y41.53 E3.3758
G0 F3600 X37.908 Y41.716
G1 F1800 X38.498 Y41.257 E3.38986
G1 X39.134 Y40.862 E3.40394
G1 X39.808 Y40.538 E3.41801
G1 X40.513 Y40.288 E3.43208
G1 X41.241 Y40.114 E3.44616
G1 X41.983 Y40.019 E3.46023
G1 X42.5 Y40 E3.46996
G1 X57.5 Y40 E3.75212
G1 X58.247 Y40.04 E3.76619
G1 X58.985 Y40.159 E3.78025
G1 X59.707 Y40.357 E3.79434
G1 X60.403 Y40.63 E3.8084
G1 X61.066 Y40.977 E3.82248
G1 X61.689 Y41.392 E3.83656
G1 X62.263 Y41.871 E3.85062
G1 X62.784 Y42.408 E3.86469
G1 X63.243 Y42.998 E3.87876
G1 X63.638 Y43.634 E3.89284
G1 X63.962 Y44.308 E3.90691
G1 X64.212 Y45.013 E3.92098
G1 X64.386 Y45.741 E3.93506
G1 X64.481 Y46.483 E3.94913
G1 X64.5 Y47 E3.95886
G1 X64.5 Y53 E4.07172
G1 X64.46 Y53.747 E4.08579
G1 X64.341 Y54.485 E4.09986
G1 X64.143 Y55.207 E4.11394
G1 X63.87 Y55.903 E4.128
G1 X63.523 Y56.566 E4.14208
G1 X63.108 Y57.189 E4.15616
G1 X62.629 Y57.763 E4.17022
G1 X62.092 Y58.284 E4.1843
G1 X61.502 Y58.743 E4.19836
G1 X60.866 Y59.138 E4.21244
G1 X60.192 Y59.462 E4.22651
G1 X59.487 Y59.712 E4.24058
G1 X58.759 Y59.886 E4.25466
G1 X58.017 Y59.981 E4.26873
G1 X57.5 Y60 E4.27846
G1 X42.5 Y60 E4.56062
G1 X41.753 Y59.96 E4.57469
G1 X41.015 Y59.841 E4.58875
G1 X40.293 Y59.643 E4.60284
G1 X39.597 Y59.37 E4.6169
G1 X38.934 Y59.023 E4.63097
G1 X38.311 Y58.608 E4.64506
G1 X37.737 Y58.129 E4.65912
G1 X37.216 Y57.592 E4.67319
G1 X36.757 Y57.002 E4.68725
G1 X36.362 Y56.366 E4.70134
G1 X36.038 Y55.692 E4.7154
G1 X35.788 Y54.987 E4.72947
G1 X35.614 Y54.259 E4.74355
G1 X35.519 Y53.517 E4.75763
G1 X35.5 Y53 E4.76736
G1 X35.5 Y47 E4.88022
G1 X35.54 Y46.253 E4.89429
G1 X35.659 Y45.515 E4.90835
G1 X35.857 Y44.793 E4.92244
G1 X36.13 Y44.097 E4.9365
G1 X36.477 Y43.434 E4.95058
G1 X36.892 Y42.811 E4.96466
G1 X37.371 Y42.237 E4.97872
G1 X37.908 Y41.716 E4.99279
G0 F3600 X37.765 Y42.402
G1 F1800 X38.299 Y41.909 E5.00647
G1 X38.884 Y41.479 E5.02012
G1 X39.513 Y41.115 E5.03379
G1 X40.178 Y40.822 E5.04746
G1 X40.871 Y40.604 E5.06113
G1 X41.583 Y40.464 E5.07478
G1 X42.5 Y40.4 E5.09207
G1 X57.5 Y40.4 E5.37423
G1 X58.225 Y40.44 E5.38788
G1 X58.942 Y40.559 E5.40156
G1 X59.641 Y40.757 E5.41522
G1 X60.314 Y41.03 E5.42888
G1 X60.953 Y41.375 E5.44254
G1 X61.55 Y41.789 E5.45621
G1 X62.098 Y42.265 E5.46986
G1 X62.591 Y42.799 E5.48353
G1 X63.021 Y43.384 E5.49719
G1 X63.385 Y44.013 E5.51086
G1 X63.678 Y44.678 E5.52453
G1 X63.896 Y45.371 E5.5382
G1 X64.036 Y46.083 E5.55185
G1 X64.1 Y47 E5.56914
G1 X64.1 Y53 E5.682
G1 X64.06 Y53.725 E5.69566
G1 X63.941 Y54.442 E5.70933
G1 X63.743 Y55.141 E5.723
G1 X63.47 Y55.814 E5.73666
G1 X63.125 Y56.453 E5.75032
G1 X62.711 Y57.05 E5.76398
G1 X62.235 Y57.598 E5.77764
G1 X61.701 Y58.091 E5.79131
G1 X61.116 Y58.521 E5.80497
G1 X60.487 Y58.885 E5.81864
G1 X59.822 Y59.178 E5.83231
G1 X59.129 Y59.396 E5.84597
G1 X58.417 Y59.536 E5.85962
G1 X57.5 Y59.6 E5.87691
G1 X42.5 Y59.6 E6.15907
G1 X41.775 Y59.56 E6.17273
G1 X41.058 Y59.441 E6.1864
G1 X40.359 Y59.243 E6.20007
G1 X39.686 Y58.97 E6.21373
G1 X39.047 Y58.625 E6.22739
G1 X38.45 Y58.211 E6.24105
G1 X37.902 Y57.735 E6.25471
G1 X37.409 Y57.201 E6.26838
G1 X36.979 Y56.616 E6.28204
G1 X36.615 Y55.987 E6.29571
G1 X36.322 Y55.322 E6.30938
G1 X36.104 Y54.629 E6.32304
G1 X35.964 Y53.917 E6.33669
G1 X35.9 Y53 E6.35398
G1 X35.9 Y47 E6.46685
G1 X35.94 Y46.275 E6.4805
G1 X36.059 Y45.558 E6.49418
G1 X36.257 Y44.859 E6.50784
G1 X36.53 Y44.186 E6.5215
G1 X36.875 Y43.547 E6.53516
G1 X37.289 Y42.95 E6.54883
G1 X37.765 Y42.402 E6.56248
G0 F3600 X38.159 Y42.573
G1 F1800 X38.689 Y42.109 E6.57573
G1 X39.268 Y41.709 E6.58897
G1 X39.889 Y41.377 E6.60222
G1 X40.543 Y41.117 E6.61545
G1 X41.223 Y40.933 E6.62871
G1 X41.919 Y40.827 E6.64195
G1 X42.5 Y40.8 E6.65289
G1 X57.5 Y40.8 E6.93505
G1 X58.203 Y40.84 E6.94829
G1 X58.897 Y40.959 E6.96154
G1 X59.572 Y41.157 E6.97477
G1 X60.221 Y41.429 E6.98801
G1 X60.835 Y41.774 E7.00126
G1 X61.406 Y42.185 E7.01449
G1 X61.927 Y42.659 E7.02774
G1 X62.391 Y43.189 E7.04099
G1 X62.791 Y43.768 E7.05423
G1 X63.123 Y44.389 E7.06747
G1 X63.383 Y45.043 E7.08071
G1 X63.567 Y45.723 E7.09396
G1 X63.673 Y46.419 E7.10721
G1 X63.7 Y47 E7.11815
G1 X63.7 Y53 E7.23101
G1 X63.66 Y53.703 E7.24425
G1 X63.541 Y54.397 E7.2575
G1 X63.343 Y55.072 E7.27073
G1 X63.071 Y55.721 E7.28397
G1 X62.726 Y56.335 E7.29722
G1 X62.315 Y56.906 E7.31045
G1 X61.841 Y57.427 E7.3237
G1 X61.311 Y57.891 E7.33695
G1 X60.732 Y58.291 E7.35019
G1 X60.111 Y58.623 E7.36343
G1 X59.457 Y58.883 E7.37667
G1 X58.777 Y59.067 E7.38992
G1 X58.081 Y59.173 E7.40317
G1 X57.5 Y59.2 E7.41411
G1 X42.5 Y59.2 E7.69627
G1 X41.797 Y59.16 E7.70951
G1 X41.103 Y59.041 E7.72276
G1 X40.428 Y58.843 E7.73599
G1 X39.779 Y58.571 E7.74923
G1 X39.165 Y58.226 E7.76247
G1 X38.594 Y57.815 E7.77571
G1 X38.073 Y57.341 E7.78896
G1 X37.609 Y56.811 E7.80221
G1 X37.209 Y56.232 E7.81544
G1 X36.877 Y55.611 E7.82869
G1 X36.617 Y54.957 E7.84193
G1 X36.433 Y54.277 E7.85518
G1 X36.327 Y53.581 E7.86842
G1 X36.3 Y53 E7.87936
G1 X36.3 Y47 E7.99223
G1 X36.34 Y46.297 E8.00547
G1 X36.459 Y45.603 E8.01872
G1 X36.657 Y44.928 E8.03195
G1 X36.929 Y44.279 E8.04519
G1 X37.274 Y43.665 E8.05843
G1 X37.685 Y43.094 E8.07167
G1 X38.159 Y42.573 E8.08492
G0 F3600 X38.553 Y42.751
G1 F1800 X39.078 Y42.317 E8.09773
G1 X39.65 Y41.948 E8.11054
G1 X40.262 Y41.649 E8.12335
G1 X40.904 Y41.424 E8.13614
G1 X41.569 Y41.275 E8.14896
G1 X42.5 Y41.2 E8.16653
G1 X57.5 Y41.2 E8.44869
G1 X58.18 Y41.24 E8.4615
G1 X58.85 Y41.359 E8.4743
G1 X59.502 Y41.556 E8.48712
G1 X60.126 Y41.828 E8.49992
G1 X60.714 Y42.172 E8.51274
G1 X61.258 Y42.582 E8.52555
G1 X61.749 Y43.053 E8.53835
G1 X62.183 Y43.578 E8.55116
G1 X62.552 Y44.15 E8.56397
G1 X62.851 Y44.762 E8.57678
G1 X63.076 Y45.404 E8.58957
G1 X63.225 Y46.069 E8.60239
G1 X63.3 Y47 E8.61996
G1 X63.3 Y53 E8.73283
G1 X63.26 Y53.68 E8.74564
G1 X63.141 Y54.35 E8.75844
G1 X62.944 Y55.002 E8.77125
G1 X62.672 Y55.626 E8.78406
G1 X62.328 Y56.214 E8.79687
G1 X61.918 Y56.758 E8.80968
G1 X61.447 Y57.249 E8.82248
G1 X60.922 Y57.683 E8.8353
G1 X60.35 Y58.052 E8.8481
G1 X59.738 Y58.351 E8.86091
G1 X59.096 Y58.576 E8.87371
G1 X58.431 Y58.725 E8.88653
G1 X57.5 Y58.8 E8.9041
G1 X42.5 Y58.8 E9.18626
G1 X41.82 Y58.76 E9.19907
G1 X41.15 Y58.641 E9.21187
G1 X40.498 Y58.444 E9.22468
G1 X39.874 Y58.172 E9.23749
G1 X39.286 Y57.828 E9.2503
G1 X38.742 Y57.418 E9.26311
G1 X38.251 Y56.947 E9.27591
G1 X37.817 Y56.422 E9.28873
G1 X37.448 Y55.85 E9.30153
G1 X37.149 Y55.238 E9.31434
G1 X36.924 Y54.596 E9.32714
G1 X36.775 Y53.931 E9.33996
G1 X36.7 Y53 E9.35753
G1 X36.7 Y47 E9.47039
G1 X36.74 Y46.32 E9.4832
G1 X36.859 Y45.65 E9.496
G1 X37.056 Y44.998 E9.50882
G1 X37.328 Y44.374 E9.52162
G1 X37.672 Y43.786 E9.53444
G1 X38.082 Y43.242 E9.54725
G1 X38.553 Y42.751 E9.56005
G0 F3600 X38.945 Y42.935
G1 F1800 X39.465 Y42.534 E9.5724
G1 X40.029 Y42.198 E9.58475
G1 X40.631 Y41.934 E9.59711
G1 X41.26 Y41.744 E9.60947
G1 X41.907 Y41.633 E9.62182
G1 X42.5 Y41.6 E9.63299
G1 X57.5 Y41.6 E9.91515
G1 X58.156 Y41.64 E9.92752
G1 X58.802 Y41.759 E9.93987
G1 X59.429 Y41.956 E9.95223
G1 X60.027 Y42.228 E9.96459
G1 X60.588 Y42.57 E9.97695
G1 X61.103 Y42.978 E9.98931
G1 X61.565 Y43.445 E10.00167
G1 X61.966 Y43.965 E10.01402
G1 X62.302 Y44.529 E10.02637
G1 X62.566 Y45.131 E10.03873
G1 X62.756 Y45.76 E10.05109
G1 X62.867 Y46.407 E10.06344
G1 X62.9 Y47 E10.07461
G1 X62.9 Y53 E10.18748
G1 X62.86 Y53.656 E10.19984
G1 X62.741 Y54.302 E10.21219
G1 X62.544 Y54.929 E10.22456
G1 X62.272 Y55.527 E10.23692
G1 X61.93 Y56.088 E10.24927
G1 X61.522 Y56.603 E10.26163
G1 X61.055 Y57.065 E10.27399
G1 X60.535 Y57.466 E10.28634
G1 X59.971 Y57.802 E10.29869
G1 X59.369 Y58.066 E10.31106
G1 X58.74 Y58.256 E10.32342
G1 X58.093 Y58.367 E10.33576
G1 X57.5 Y58.4 E10.34694
G1 X42.5 Y58.4 E10.62909
G1 X41.844 Y58.36 E10.64146
G1 X41.198 Y58.241 E10.65381
G1 X40.571 Y58.044 E10.66618
G1 X39.973 Y57.772 E10.67853
G1 X39.412 Y57.43 E10.69089
G1 X38.897 Y57.022 E10.70325
G1 X38.435 Y56.555 E10.71561
G1 X38.034 Y56.035 E10.72796
G1 X37.698 Y55.471 E10.74031
G1 X37.434 Y54.869 E10.75268
G1 X37.244 Y54.24 E10.76504
G1 X37.133 Y53.593 E10.77738
G1 X37.1 Y53 E10.78856
G1 X37.1 Y47 E10.90142
G1 X37.14 Y46.344 E10.91378
G1 X37.259 Y45.698 E10.92614
G1 X37.456 Y45.071 E10.9385
G1 X37.728 Y44.473 E10.95086
G1 X38.07 Y43.912 E10.96322
G1 X38.478 Y43.397 E10.97558
G1 X38.945 Y42.935 E10.98793
G0 F3600 X38.873 Y43.559
G1 F1800 X39.336 Y43.129 E10.99982
G1 X39.85 Y42.76 E11.01172
G1 X40.406 Y42.46 E11.0236
G1 X40.995 Y42.232 E11.03549
G1 X41.609 Y42.08 E11.04738
G1 X42.5 Y42 E11.06421
G1 X57.5 Y42 E11.34637
G1 X58.131 Y42.04 E11.35826
G1 X58.752 Y42.159 E11.37016
G1 X59.352 Y42.356 E11.38204
G1 X59.924 Y42.627 E11.39394
G1 X60.456 Y42.967 E11.40582
G1 X60.941 Y43.373 E11.41772
G1 X61.371 Y43.836 E11.4296
G1 X61.74 Y44.35 E11.4415
G1 X62.04 Y44.906 E11.45339
G1 X62.268 Y45.495 E11.46527
G1 X62.42 Y46.109 E11.47717
G1 X62.5 Y47 E11.49399
G1 X62.5 Y53 E11.60686
G1 X62.46 Y53.631 E11.61875
G1 X62.341 Y54.252 E11.63065
G1 X62.144 Y54.852 E11.64252
G1 X61.873 Y55.424 E11.65443
G1 X61.533 Y55.956 E11.66631
G1 X61.127 Y56.441 E11.6782
G1 X60.664 Y56.871 E11.69009
G1 X60.15 Y57.24 E11.70199
G1 X59.594 Y57.54 E11.71388
G1 X59.005 Y57.768 E11.72576
G1 X58.391 Y57.92 E11.73766
G1 X57.5 Y58 E11.75448
G1 X42.5 Y58 E12.03664
G1 X41.869 Y57.96 E12.04853
G1 X41.248 Y57.841 E12.06043
G1 X40.648 Y57.644 E12.07231
G1 X40.076 Y57.373 E12.08421
G1 X39.544 Y57.033 E12.09609
G1 X39.059 Y56.627 E12.10799
G1 X38.629 Y56.164 E12.11987
G1 X38.26 Y55.65 E12.13178
G1 X37.96 Y55.094 E12.14366
G1 X37.732 Y54.505 E12.15554
G1 X37.58 Y53.891 E12.16744
G1 X37.5 Y53 E12.18427
G1 X37.5 Y47 E12.29713
G1 X37.54 Y46.369 E12.30902
G1 X37.659 Y45.748 E12.32092
G1 X37.856 Y45.148 E12.3328
G1 X38.127 Y44.576 E12.3447
G1 X38.467 Y44.044 E12.35658
G1 X38.873 Y43.559 E12.36848
G0 F3600 X39.267 Y43.728
G1 F1800 X39.725 Y43.331 E12.37988
G1 X40.232 Y42.998 E12.39129
G1 X40.778 Y42.734 E12.4027
G1 X41.354 Y42.545 E12.4141
G1 X41.95 Y42.433 E12.42551
G1 X42.5 Y42.4 E12.43587
G1 X57.5 Y42.4 E12.71803
G1 X58.105 Y42.44 E12.72943
G1 X58.699 Y42.559 E12.74083
G1 X59.273 Y42.755 E12.75224
G1 X59.816 Y43.026 E12.76366
G1 X60.319 Y43.365 E12.77507
G1 X60.772 Y43.767 E12.78646
G1 X61.169 Y44.225 E12.79786
G1 X61.502 Y44.732 E12.80927
G1 X61.766 Y45.278 E12.82068
G1 X61.955 Y45.854 E12.83208
G1 X62.067 Y46.45 E12.84349
G1 X62.1 Y47 E12.85385
G1 X62.1 Y53 E12.96672
G1 X62.06 Y53.605 E12.97812
G1 X61.941 Y54.199 E12.98952
G1 X61.745 Y54.773 E13.00093
G1 X61.474 Y55.316 E13.01234
G1 X61.135 Y55.819 E13.02375
G1 X60.733 Y56.272 E13.03514
G1 X60.275 Y56.669 E13.04655
G1 X59.768 Y57.002 E13.05796
G1 X59.222 Y57.266 E13.06936
G1 X58.646 Y57.455 E13.08077
G1 X58.05 Y57.567 E13.09217
G1 X57.5 Y57.6 E13.10254
G1 X42.5 Y57.6 E13.3847
G1 X41.895 Y57.56 E13.3961
G1 X41.301 Y57.441 E13.4075
G1 X40.727 Y57.245 E13.41891
G1 X40.184 Y56.974 E13.43032
G1 X39.681 Y56.635 E13.44173
G1 X39.228 Y56.233 E13.45312
G1 X38.831 Y55.775 E13.46453
G1 X38.498 Y55.268 E13.47594
G1 X38.234 Y54.722 E13.48734
G1 X38.045 Y54.146 E13.49875
G1 X37.933 Y53.55 E13.51015
G1 X37.9 Y53 E13.52052
G1 X37.9 Y47 E13.63338
G1 X37.94 Y46.395 E13.64479
G1 X38.059 Y45.801 E13.65618
G1 X38.255 Y45.227 E13.66759
G1 X38.526 Y44.684 E13.67901
G1 X38.865 Y44.181 E13.69042
G1 X39.267 Y43.728 E13.70181
G0 F3600 X39.66 Y43.906
G1 F1800 X40.113 Y43.544 E13.71272
G1 X40.611 Y43.249 E13.72361
G1 X41.145 Y43.024 E13.73451
G1 X41.705 Y42.876 E13.7454
G1 X42.5 Y42.8 E13.76042
G1 X57.5 Y42.8 E14.04258
G1 X58.078 Y42.84 E14.05348
G1 X58.645 Y42.959 E14.06438
G1 X59.19 Y43.155 E14.07527
G1 X59.703 Y43.424 E14.08617
G1 X60.174 Y43.761 E14.09706
G1 X60.594 Y44.16 E14.10796
G1 X60.956 Y44.613 E14.11887
G1 X61.251 Y45.111 E14.12976
G1 X61.476 Y45.645 E14.14066
G1 X61.624 Y46.205 E14.15155
G1 X61.7 Y47 E14.16658
G1 X61.7 Y53 E14.27944
G1 X61.66 Y53.578 E14.29034
G1 X61.541 Y54.145 E14.30124
G1 X61.345 Y54.69 E14.31213
G1 X61.076 Y55.203 E14.32303
G1 X60.739 Y55.674 E14.33392
G1 X60.34 Y56.094 E14.34482
G1 X59.887 Y56.456 E14.35572
G1 X59.389 Y56.751 E14.36661
G1 X58.855 Y56.976 E14.37751
G1 X58.295 Y57.124 E14.38841
G1 X57.5 Y57.2 E14.40343
